X:1
T:6 Lieder, Op.26
T:Schilflied
T:Frau Clara Schumann freundlichst gewidmet
T:6 Lieder, Op.26
T:Josephine Lang
T:6. Schilflied
T:Nikolaus Lenau 
T:Creative Commons copyright waiver (CC0 1.0 Universal)
T:Creative Commons copyright waiver (CC0 1.0 Universal)
C:Josephine Lang
Z:Nikolaus Lenau
Z:Creative Commons copyright waiver (CC0 1.0 Universal)
L:1/8
Q:1/4=92
M:4/4
K:A
V:1 treble nm="Singstimme\nVoice"
V:1
"^Andante" E2 F2 G2 A2 | B2 c2 B2 A2 | G2 F2 E2 ^D2 | =D3 A A4 | B3 E E2 E2 | E3 E B2 A2 | %6
w: Drü- ben geht die|Son- ne schei- den|und der mü- de|Tag ent- schlief,|nie- der han- gen|hier die Wei- den|
 G2 =G2 F3 E | E2 z c c4 | B3 F F4- | F3 E E4- | E3 C C2 z B, | B,8 ||[K:C] C2 z D E2 A2 | %13
w: in den Teich, so|still, so tief,|in den Teich,|_ so tief,|_ so still, so|tief.|Und ich muss mein|
 c3 B A2 E2 | C2 z"^Modern German\nspelling: \"Träne\"\n" E G2 ^G2 | A3 G D2 z2 | E3 D C2 E2 | %17
w: Lieb- stes mei- den,|quill', o Trä- ne,|quill' her- vor!|trau- rig säu- seln|
 c3 B A2 E2 | B,2[Q:1/4=120]"^animato" z E B2 E2 | B,3 ^F B4 |[Q:1/4=115]"^ritard." D3 C B,2 D2 | %21
w: hier die Wei- den|und im Win- de|bebt das Rohr,|und ich muss mein|
[Q:1/4=110] ^G3 F E2 B,2 | z8 | z8 | D3"^Modern spelling:\n    \"Träne\"\n" B, ^G2 E2 | d3 B ^G4 | %26
w: Lieb- stes mei- den,|||quill', o Trä- ne,|quill' her- vor,|
 A6 B2 | (B4[Q:1/4=100] E2) z2[Q:1/4=100]"^rit." ||[K:A][Q:1/4=92]"^Tempo I""^dolce" E2 F2 G2 A2 | %29
w: quill' her-|vor! _|Wie durch Bin- sen|
 B2 c2 B2 A2 | G2 F2 E2 ^D2 | =D3 A A2 z2 | B3 E E2 E2 | E3 E B2 A2 | G2 =G2 F2 E2 | E3 c c4 | %36
w: hier und Wei- den|strahlt des A- bend-|ster- nes Bild,|in mein stil- les,|tie- fes Lei- den|strahlst du fer- ne,|hell und mild,|
 (B3 F) F4 | (=d3 E) E4 | FE DC ED (3DC B, | A,8 |] %40
w: fer- * ne,|fer- * ne,|fer- * ne * hell _ _ _  und|mild!|

